SVG_Azure_Grouped/Management/Azure Resource Mover.svg

<?xml version="1.0" encoding="UTF-8" standalone="no"?>
<!-- Generated by Microsoft Visio, SVG Export Azure Resource Mover.svg Page-1 -->

<svg
   xmlns:dc="http://purl.org/dc/elements/1.1/"
   xmlns:cc="http://creativecommons.org/ns#"
   xmlns:rdf="http://www.w3.org/1999/02/22-rdf-syntax-ns#"
   xmlns:svg="http://www.w3.org/2000/svg"
   xmlns="http://www.w3.org/2000/svg"
   xmlns:sodipodi="http://sodipodi.sourceforge.net/DTD/sodipodi-0.dtd"
   xmlns:inkscape="http://www.inkscape.org/namespaces/inkscape"
   width="0.62846017in"
   height="0.78807855in"
   viewBox="0 0 45.249053 56.741346"
   xml:space="preserve"
   class="st5"
   version="1.1"
   id="svg44"
   sodipodi:docname="Azure Resource Mover.svg"
   style="font-size:12px;overflow:visible;color-interpolation-filters:sRGB;fill:none;fill-rule:evenodd;stroke-linecap:square;stroke-miterlimit:3"
   inkscape:version="0.92.5 (2060ec1f9f, 2020-04-08)"><metadata
   id="metadata50"><rdf:RDF><cc:Work
       rdf:about=""><dc:format>image/svg+xml</dc:format><dc:type
         rdf:resource="http://purl.org/dc/dcmitype/StillImage" /></cc:Work></rdf:RDF></metadata><defs
   id="defs48" /><sodipodi:namedview
   pagecolor="#ffffff"
   bordercolor="#666666"
   borderopacity="1"
   objecttolerance="10"
   gridtolerance="10"
   guidetolerance="10"
   inkscape:pageopacity="0"
   inkscape:pageshadow="2"
   inkscape:window-width="640"
   inkscape:window-height="480"
   id="namedview46"
   showgrid="false"
   inkscape:zoom="1.4190006"
   inkscape:cx="30.163316"
   inkscape:cy="37.830278"
   inkscape:window-x="0"
   inkscape:window-y="0"
   inkscape:window-maximized="0"
   inkscape:current-layer="svg44" />
	<style
   type="text/css"
   id="style2">
	<![CDATA[
		.st1 {fill:#32bedd;stroke:none;stroke-linecap:butt;stroke-width:34}
		.st2 {fill:#9cebff;stroke:none;stroke-linecap:butt;stroke-width:34}
		.st3 {fill:#50e6ff;stroke:none;stroke-linecap:butt;stroke-width:34}
		.st4 {fill:#773adc;stroke:none;stroke-linecap:butt;stroke-width:34}
		.st5 {fill:none;fill-rule:evenodd;font-size:12px;overflow:visible;stroke-linecap:square;stroke-miterlimit:3}
	]]>
	</style>

	<g
   id="g42"
   transform="translate(-34.000054,-33.998833)">
		<title
   id="title4">Page-1</title>
		<g
   id="group12575-1"
   transform="translate(33.8908,-34.0425)">
			<title
   id="title6">Azure Resource Mover.12575</title>
			<g
   id="group12576-2">
				<title
   id="title8">Sheet.12576</title>
				<g
   id="shape12577-3"
   transform="translate(24.3363,-6.34464)">
					<title
   id="title10">Sheet.12577</title>
					<path
   d="m 21.02,87.01 v 25.11 L 0,124.74 V 99.59 Z"
   class="st1"
   id="path12"
   inkscape:connector-curvature="0"
   style="fill:#32bedd;stroke:none;stroke-width:34;stroke-linecap:butt" />
				</g>
				<g
   id="shape12578-5"
   transform="translate(3.31831,-31.4589)">
					<title
   id="title15">Sheet.12578</title>
					<path
   d="M 42.04,112.12 21.02,124.74 0,112.12 21.02,99.5 Z"
   class="st2"
   id="path17"
   inkscape:connector-curvature="0"
   style="fill:#9cebff;stroke:none;stroke-width:34;stroke-linecap:butt" />
				</g>
				<g
   id="shape12579-7"
   transform="translate(3.31831,-6.34464)">
					<title
   id="title20">Sheet.12579</title>
					<path
   d="m 21.02,99.62 v 25.12 L 0,112.12 V 87 Z"
   class="st3"
   id="path22"
   inkscape:connector-curvature="0"
   style="fill:#50e6ff;stroke:none;stroke-width:34;stroke-linecap:butt" />
				</g>
				<g
   id="shape12580-9"
   transform="translate(3.31831,-6.34464)">
					<title
   id="title25">Sheet.12580</title>
					<path
   d="M 0,112.12 21.02,99.59 v 25.15 z"
   class="st2"
   id="path27"
   inkscape:connector-curvature="0"
   style="fill:#9cebff;stroke:none;stroke-width:34;stroke-linecap:butt" />
				</g>
				<g
   id="shape12581-11"
   transform="translate(24.3363,-6.34464)">
					<title
   id="title30">Sheet.12581</title>
					<path
   d="M 21.02,112.12 0,99.59 v 25.15 z"
   class="st3"
   id="path32"
   inkscape:connector-curvature="0"
   style="fill:#50e6ff;stroke:none;stroke-width:34;stroke-linecap:butt" />
				</g>
				<g
   id="shape12582-13">
					<title
   id="title35">Sheet.12582</title>
					<path
   d="m 35.21,114.31 -10.18,10.32 a 0.512858,0.529517 0 0 1 -0.873079,-0.38453 L 24.21,118.5 v -0.34 C 12.08,118.04 0,111.22 0.11,99.17 c 1.71,2.7 10.31,9.94 24.18,10.09 v -0.1 l 0.05,-5.74 a 0.512858,0.529517 0 0 1 0.879185,-0.36877 L 35.21,113.57 a 0.509805,0.526365 0 0 1 0,0.74385 z"
   class="st4"
   id="path37"
   inkscape:connector-curvature="0"
   style="fill:#773adc;stroke:none;stroke-width:34;stroke-linecap:butt" />
				</g>
			</g>
		</g>
	</g>
</svg>

<?xml version="1.0" encoding="UTF-8" standalone="no"?>
<!DOCTYPE svg PUBLIC "-//W3C//DTD SVG 1.1//EN" "http://www.w3.org/Graphics/SVG/1.1/DTD/svg11.dtd">
<!-- Generated by Microsoft Visio, SVG Export Azure Resource Mover.svg Page-1 -->
<svg xmlns="http://www.w3.org/2000/svg" xmlns:xlink="http://www.w3.org/1999/xlink" xmlns:ev="http://www.w3.org/2001/xml-events"
		width="1.57285in" height="1.73244in" viewBox="0 0 113.245 124.735" xml:space="preserve" color-interpolation-filters="sRGB"
		class="st5">
	<style type="text/css">
	<![CDATA[
		.st1 {fill:#32bedd;stroke:none;stroke-linecap:butt;stroke-width:34}
		.st2 {fill:#9cebff;stroke:none;stroke-linecap:butt;stroke-width:34}
		.st3 {fill:#50e6ff;stroke:none;stroke-linecap:butt;stroke-width:34}
		.st4 {fill:#773adc;stroke:none;stroke-linecap:butt;stroke-width:34}
		.st5 {fill:none;fill-rule:evenodd;font-size:12px;overflow:visible;stroke-linecap:square;stroke-miterlimit:3}
	]]>
	</style>

	<g>
		<title>Page-1</title>
		<g id="group12293-1" transform="translate(33.8908,-34.0425)">
			<title>Azure Resource Mover.12293</title>
			<g id="group12294-2">
				<title>Sheet.12294</title>
				<g id="shape12295-3" transform="translate(24.3363,-6.34464)">
					<title>Sheet.12295</title>
					<path d="M21.02 87.01 L21.02 112.12 L0 124.74 L0 99.59 L21.02 87.01 Z" class="st1"/>
				</g>
				<g id="shape12296-5" transform="translate(3.31831,-31.4589)">
					<title>Sheet.12296</title>
					<path d="M42.04 112.12 L21.02 124.74 L0 112.12 L21.02 99.5 L42.04 112.12 Z" class="st2"/>
				</g>
				<g id="shape12297-7" transform="translate(3.31831,-6.34464)">
					<title>Sheet.12297</title>
					<path d="M21.02 99.62 L21.02 124.74 L0 112.12 L0 87 L21.02 99.62 Z" class="st3"/>
				</g>
				<g id="shape12298-9" transform="translate(3.31831,-6.34464)">
					<title>Sheet.12298</title>
					<path d="M0 112.12 L21.02 99.59 L21.02 124.74 L0 112.12 Z" class="st2"/>
				</g>
				<g id="shape12299-11" transform="translate(24.3363,-6.34464)">
					<title>Sheet.12299</title>
					<path d="M21.02 112.12 L0 99.59 L0 124.74 L21.02 112.12 Z" class="st3"/>
				</g>
				<g id="shape12300-13">
					<title>Sheet.12300</title>
					<path d="M35.21 114.31 L25.03 124.63 a0.512858 0.529517 0 0 1 -0.873079 -0.38453 L24.21 118.5 L24.21 118.16 C12.08
								 118.04 0 111.22 0.11 99.17 C1.82 101.87 10.42 109.11 24.29 109.26 L24.29 109.16 L24.34 103.42 a0.512858
								 0.529517 0 0 1 0.879185 -0.368771 L35.21 113.57 a0.509805 0.526365 0 0 1 2.84217E-14 0.743846 Z"
							class="st4"/>
				</g>
			</g>
		</g>
	</g>
</svg>
